Resources/Icons/PCGEx_Editor_Fit_Min.svg

<?xml version="1.0" encoding="UTF-8"?>
<svg id="icons" xmlns="http://www.w3.org/2000/svg" viewBox="0 0 100 100">
  <defs>
    <style>
      .cls-1 {
        fill: #fff;
      }

      .cls-2 {
        fill: #4d8dfc;
      }
    </style>
  </defs>
  <rect class="cls-2" x="17.31" y="31.19" width="65.38" height="37.62"/>
  <g>
    <polygon points="36.69 36.69 63.31 36.69 63.31 63.31 52.22 63.31 52.22 63.31 36.69 63.31 36.69 36.69"/>
    <path class="cls-1" d="M63.53,65.81h-27.07c-1.38,0-2.5-1.12-2.5-2.5v-26.62c0-1.38,1.12-2.5,2.5-2.5h27.07c1.38,0,2.5,1.12,2.5,2.5v26.62c0,1.38-1.12,2.5-2.5,2.5ZM36.69,63.09h26.62v-26.18h-26.62v26.18Z"/>
  </g>
</svg>

<svg id="icons" xmlns="http://www.w3.org/2000/svg" viewBox="0 0 100 100">
    <defs>
        <style>.cls-1{fill:#4d8dfc;}.cls-2{fill:#fff;}</style>
    </defs>
    <rect class="cls-1" x="17.31" y="31.19" width="65.38" height="37.62"/>
    <polygon points="36.69 36.69 63.31 36.69 63.31 63.31 52.22 63.31 52.22 63.31 36.69 63.31 36.69 36.69"/>
    <path class="cls-2"
          d="M63.53,65.81H36.47a2.5,2.5,0,0,1-2.5-2.5V36.69a2.5,2.5,0,0,1,2.5-2.5H63.53a2.5,2.5,0,0,1,2.5,2.5V63.31A2.5,2.5,0,0,1,63.53,65.81ZM36.69,63.09H63.31V36.91H36.69Z"/>
</svg>
